tools/download-figma-icons/icons/outlined-medium/gold-shiny.svg

<svg width="25" height="24" viewBox="0 0 25 24" fill="none" xmlns="http://www.w3.org/2000/svg">
<path fill-rule="evenodd" clip-rule="evenodd" d="M12.842 8.39349C12.842 8.80824 12.506 9.14349 12.092 9.14349C11.678 9.14349 11.342 8.80824 11.342 8.39349V3.75024C11.342 3.33549 11.678 3.00024 12.092 3.00024C12.506 3.00024 12.842 3.33549 12.842 3.75024V8.39349ZM15.3137 18.3565L13.2294 22.4252H22.0584L19.9742 18.3565H17.7332H15.3137ZM4.08244 18.3565L1.99819 22.4252H10.8272L8.74294 18.3565H6.45019H4.08244ZM10.4289 18.3565L12.0287 21.4795L13.6284 18.3565H10.4289ZM14.4219 12.7877H9.76142L7.67717 16.8565H9.20117H14.8554H16.5069L14.4219 12.7877ZM20.4324 16.8565C20.7144 16.8565 20.9717 17.014 21.1007 17.2645L23.9529 22.8332C24.0722 23.0657 24.0617 23.344 23.9252 23.566C23.7894 23.7887 23.5464 23.9252 23.2854 23.9252H12.0542H12.0024H0.771182C0.510182 23.9252 0.267932 23.7887 0.131432 23.566C-0.00506776 23.344 -0.0155678 23.0657 0.103682 22.8332L2.95668 17.2645C3.08493 17.014 3.34218 16.8565 3.62418 16.8565H5.99193L8.63568 11.6957C8.76393 11.4452 9.02193 11.2877 9.30318 11.2877H14.8809C15.1622 11.2877 15.4194 11.4452 15.5484 11.6957L18.1922 16.8565H20.4324ZM16.9267 9.71402C17.0002 9.73652 17.0737 9.74702 17.1472 9.74702C17.4675 9.74702 17.7645 9.54002 17.8642 9.21752L19.227 4.77827C19.3485 4.38227 19.1265 3.96227 18.7305 3.84077C18.3367 3.71777 17.9145 3.94127 17.793 4.33727L16.4295 8.77652C16.308 9.17252 16.5307 9.59252 16.9267 9.71402ZM22.826 8.09275C23.0682 7.756 23.537 7.68175 23.873 7.924C24.209 8.16625 24.284 8.635 24.0417 8.971L21.3222 12.7352C21.176 12.9385 20.9465 13.0457 20.714 13.0457C20.5617 13.0457 20.408 13 20.2752 12.904C19.9392 12.661 19.8642 12.1922 20.1065 11.8562L22.826 8.09275ZM6.32015 9.21744C6.41915 9.53994 6.71615 9.74694 7.03715 9.74694C7.1099 9.74694 7.18415 9.73644 7.25765 9.71394C7.65365 9.59244 7.87565 9.17244 7.75415 8.77644L6.39065 4.33719C6.26915 3.94194 5.8499 3.71919 5.4539 3.84069C5.05715 3.96219 4.83515 4.38219 4.95665 4.77819L6.32015 9.21744ZM3.47066 13.0457C3.23741 13.0457 3.00791 12.9385 2.86166 12.7352L0.142159 8.97099C-0.100091 8.63499 -0.0250914 8.16624 0.310909 7.92399C0.646909 7.68174 1.11566 7.75749 1.35791 8.09274L4.07741 11.8562C4.31966 12.1922 4.24466 12.661 3.90866 12.904C3.77591 13 3.62216 13.0457 3.47066 13.0457Z" fill="black"/>
</svg>

<svg width="25" height="24" viewBox="0 0 25 24" fill="none" xmlns="http://www.w3.org/2000/svg"><path fill-rule="evenodd" clip-rule="evenodd" d="M12.842 8.393a.75.75 0 1 1-1.5 0V3.75a.75.75 0 1 1 1.5 0v4.643Zm2.472 9.963-2.085 4.07h8.83l-2.085-4.07h-4.66Zm-11.232 0-2.084 4.07h8.83l-2.085-4.07H4.082Zm6.347 0 1.6 3.123 1.6-3.122h-3.2Zm3.993-5.568h-4.66l-2.085 4.069h8.83l-2.085-4.07Zm6.01 4.069c.282 0 .54.157.669.408l2.852 5.568a.748.748 0 0 1-.668 1.092H.772a.751.751 0 0 1-.668-1.092l2.853-5.568a.75.75 0 0 1 .667-.409h2.368l2.644-5.16a.75.75 0 0 1 .667-.408h5.578a.75.75 0 0 1 .667.408l2.644 5.16h2.24Zm-3.505-7.143a.749.749 0 0 0 .937-.496l1.363-4.44a.75.75 0 0 0-1.434-.44L16.43 8.776a.75.75 0 0 0 .497.937Zm5.899-1.621a.75.75 0 1 1 1.216.878l-2.72 3.764a.747.747 0 0 1-1.047.169.75.75 0 0 1-.168-1.048l2.719-3.763ZM6.32 9.217a.75.75 0 0 0 1.434-.44l-1.363-4.44a.75.75 0 0 0-1.434.441l1.363 4.44Zm-2.85 3.829a.747.747 0 0 1-.608-.31L.142 8.97a.75.75 0 1 1 1.216-.878l2.72 3.763a.75.75 0 0 1-.607 1.19Z" fill="currentColor"/></svg>
